X:1
T:Title
%%score { ( 1 3 ) | ( 2 4 ) }
L:1/8
M:6/4
K:Eb
V:1 treble nm="Grand Piano"
V:3 treble 
V:2 bass 
V:4 bass 
V:1
 z6 z4 G2 | z6 .B6 | [CAc]2 [Bd]2 [ce]2 [Ge]4 [GB][GB] | .e6 z6 | .d6 z4 B2 | %5
 [DB]2 [EB]2 [FB]2 [EB]2 [Ee]2 [_DB]2 | .B6 z6 | [Ee]2 [Ed]2 [Ec]2 B2 =A2 G2 |[M:5/4] d4 z2 z4 | %9
[M:1/4] BB |[M:6/4] B2 f2 e2 d3 c B2 | .B6 z6 | .[B,DAB]4 [EAe]2 [FAd]3 [EAc] [DAB]2 | %13
 G2- [Ge]2 .[_Gd]2 [B,=GB]4 GG | z6 z4 =A2 | =A2 G2 A2 c2 B2 BB | B2 e2 d2 c2 E2 [=B,EF]2 | %17
 [EG]4 A2 D4- [DF]2 |[M:5/4] E2- E2- E6 |] %19
V:2
 z6 z4 G,2 | z6 .B,6 | z2 B,2 [E,A,]2 [E,B,]4 [E,B,][D,B,] | %3
 [C,C]2 [G,B,]2[K:treble] [=A,CF]2 [B,DF]2[K:bass] [D,B,]2 [E,B,]2 | %4
 .[F,B,F]4 [F,=A,E]2 [B,,B,]4 [D,B,]E, | [B,,F,]2 [B,,G,]2 [B,,A,]2 [B,,G,]2 [B,,G,]2 [B,,=E,]2 | %6
 [B,,F,]2 [C,F,]2 [D,A,]2 [E,G,]4 [E,B,][D,B,] | %7
 [C,C]2 [C,B,]2 [C,=A,]2 [E,G,E]2 [E,_G,C]2 [E,=G,_D]2 |[M:5/4] B,2 z2 [D,CD]2 [G,B,D]4 | %9
[M:1/4] B,B, |[M:6/4][K:treble] [B,DA]2 [B,DA]2 [B,EA]2 [B,FA]3 [B,EA] [B,DA]2 | %11
 z2 G,2 [E,B,]2 E,2 G,2 B,B, | z2[K:treble] f2 B,2 B,3 B, B,2 | %13
 z2 .B,3[K:treble] c[K:bass] E,4 [E,B,][E,B,C] | %14
 [E,B,_D]2 [E,A,D]2 [E,B,D]2 [E,G,D]2 [A,C]2 .[F,C]2 | %15
 [F,E]2- [F,B,E]2 [F,CE]2 [F,=A,E]2[K:treble] [B,D]2 [B,DG][_A,DF] | %16
 [G,B,E]2 [G,B,E]2[K:bass] [G,=B,E]2 [A,CE]2 [A,C]2 A,,2 | z4 C2 z4 A,2 | %18
[M:5/4] [E,G,]2- [E,G,]2- [E,G,]6 |] %19
V:3
 x12 | G2 E2 G2 z2 E2 [EGB][EGB] | x12 | G2 E2 e2 d2 [Ff]2 [Ge]2 | z2 G,2 c2 [DB]4 z C | x12 | %6
 D2 E2 [FB]2 [GB]4 [GB][GB] | x12 |[M:5/4] z2 A,2 _G2 =G4 |[M:1/4] x2 |[M:6/4] x12 | %11
 [EG]2 E2 [Ge]2 [EGB]4 [FB][EGB] | x12 | .[EB]6 z6 | G2 F2 G2 B2 .A3 D | x12 | x12 | z6 .[B,G]6 | %18
[M:5/4] x10 |] %19
V:4
 x12 | G,2 E,2 G,2 z2 G,2 E,E, | .E,6 z6 | x4[K:treble] x4[K:bass] x4 | z6 z4 B,,2 | x12 | x12 | %7
 x12 |[M:5/4] [D,D]4 z2 z4 |[M:1/4] x2 |[M:6/4][K:treble] x12 | .E,6 z6 | B,,12[K:treble] | %13
 E,4 [E,=A,]2[K:treble][K:bass] z6 | x12 | .C6 z6[K:treble] | x4[K:bass] x8 | [B,,B,]6 B,,6 | %18
[M:5/4] x10 |] %19

